X:591
T:Far O'er Struy
C:John Peter MacLeod (Tain)
B:Caledonian Companion (Hardie, 1981)
Z:Nigel Gatherer
L:1/8
M:3/4
K:D
d>B | [A2D2] [A2D2] d>e | f2 A2 f>g | a2 f2 ed | f2 e2 e>f |
g2 a>g fe | d2 B2 d>e | f2 A2 BA | [d4D4] :|
e>f | g2 a>g fd | f2 e2 f>e | d2 fa gf | f2 e2 e>f |
g2 a>g fe | d2 B2 d>e | f2 A2 BA | [d4D4] :|]
<end>
<start>
